package/converter/svg/regular/file-binary.svg

<svg xmlns="http://www.w3.org/2000/svg" viewBox="0 0 384 512"><!-- Font Awesome Pro 6.0.0-alpha2 by @fontawesome - https://fontawesome.com License - https://fontawesome.com/license (Commercial License) --><path d="M365.256 93.383L290.627 18.746C278.625 6.742 262.348 0 245.373 0H64C28.654 0 0 28.652 0 64L0.02 448C0.02 483.344 28.674 512 64.02 512H320C355.199 512 384 483.199 384 448V138.641C384 121.664 377.258 105.383 365.256 93.383ZM336.002 448C336.002 456.836 328.838 464 320.002 464H64.018C55.18 464 48.018 456.836 48.018 448L48 64.125C48 55.289 55.164 48.125 64 48.125H224.008V128C224.008 145.672 238.334 160 256.008 160H336.002V448ZM216 264C216 277.25 226.75 288 240 288V368C226.75 368 216 378.75 216 392S226.75 416 240 416H288C301.25 416 312 405.25 312 392S301.25 368 288 368V264C288 250.75 277.25 240 264 240H240C226.75 240 216 250.75 216 264ZM144 240H128C97.125 240 72 265.125 72 296V360C72 390.875 97.125 416 128 416H144C174.875 416 200 390.875 200 360V296C200 265.125 174.875 240 144 240ZM152 360C152 364.406 148.406 368 144 368H128C123.594 368 120 364.406 120 360V296C120 291.594 123.594 288 128 288H144C148.406 288 152 291.594 152 296V360Z"/></svg>

<svg xmlns="http://www.w3.org/2000/svg" viewBox="0 0 384 512"><!--! Font Awesome Pro 6.6.0 by @fontawesome - https://fontawesome.com License - https://fontawesome.com/license (Commercial License) Copyright 2024 Fonticons, Inc. --><path d="M64 464c-8.8 0-16-7.2-16-16L48 64c0-8.8 7.2-16 16-16l160 0 0 80c0 17.7 14.3 32 32 32l80 0 0 288c0 8.8-7.2 16-16 16L64 464zM64 0C28.7 0 0 28.7 0 64L0 448c0 35.3 28.7 64 64 64l256 0c35.3 0 64-28.7 64-64l0-293.5c0-17-6.7-33.3-18.7-45.3L274.7 18.7C262.7 6.7 246.5 0 229.5 0L64 0zm64 240c-30.9 0-56 25.1-56 56l0 64c0 30.9 25.1 56 56 56l16 0c30.9 0 56-25.1 56-56l0-64c0-30.9-25.1-56-56-56l-16 0zm-8 56c0-4.4 3.6-8 8-8l16 0c4.4 0 8 3.6 8 8l0 64c0 4.4-3.6 8-8 8l-16 0c-4.4 0-8-3.6-8-8l0-64zm120-56c-13.3 0-24 10.7-24 24s10.7 24 24 24l0 80c-13.3 0-24 10.7-24 24s10.7 24 24 24l24 0 24 0c13.3 0 24-10.7 24-24s-10.7-24-24-24l0-104c0-13.3-10.7-24-24-24l-24 0z"/></svg>
